X:1
T:The Blue-Tail Fly
M:2/4
L:1/8
K:D
 F| GF ED| B,B, G3/2 A,/2| D D2 D| C/2C/2 D E3/2 F/2| GF E/2E/2 D|\
 B,B, G3/2 A,/2| G,C E3/2 G/2| FD| D2| A,/2A,/2 D D3/2 D/2| CE E2|\
 A,/2A,/2 E E3/2 E/2| DF F2| D/2D/2 F F3/2 F/2| GB B3/2 B/2| AA GC|\
 D3||
